X:0
T:The Deil's Awa wi th' Exciseman
G:song or jig
M:6/8
L:1/8
Q:3/8=120
K:G
G|G2d d>ed|c2B A2c|d2G G2A|B3 d2:|
d|B2B G2B |A2A D2B|d2G G2A|B3 d2:|
